X:1
T:Chingford Processional
Z:<djl@colourcountry.net>
M:6/8
K:D
P:A
d2A FGA |1,3 Bed cBc :|2,4 Bec d3 :|
P:B
fed fed fed fed ecd ecd egf e3 ||
(4:6:2 d2A2 | (4:6:3 FGA2 | (4:6:3 Bed2 | (4:6:3 cBc2 [P:(A2)] :|
